X: 8825
T: Cuil Aodha, The
R: jig
M: 6/8
K: Gmajor
|:"G"gfd "D"cAd|"G"GAG B2c|"G"d2B cAG|"D"FED cBA|
"G"G3 GFG|"C"A3 fga|"G"gfd cAd|"D"GAG "G"GBd:|
"G"d2g gfg|"D"ade fga|"G"gfd cAd|"G"cAG "D"FGA|
"G"dgg gfg|"D"ade fga|"G"gfd "C"cAd|"D"GAG "G"G2d|
"G"d2g gfg|"D"ade fga|"G"gfd cAd|"G"cAG "D"FGA|
"G"G3 GFG|"D"A3 fga|"G"gfd "C"cAd|"D"GAG "G"G3||

